X: 154
T:Moorhead's March. JaW.154
T:March By Moorhead. JaW.154
M:C
L:1/8
Q:160
S:James Winder Ms, Lancashire, 1835-41
R:March
O:England
A:Wyresdale,Lancashire
H:1/8
Z:vmp.Chris Partington, Aug 2004
K:C
c>d|e2e>f d2d>e|c2c>e d2e>f|g>ea>g f>ed>c|B>cd>e d>Gc>d|!
e2e>f d2d>e|c2c>e d2e>f|g>ef>d c2e>d|c2c>c c2:|!
B>c|d4 e4|d4z2c>d|e4f4|e4z2e>f|g>ef>d e>ca>f|!
g>ef>d e>ca>f|g>ef>g a>gf>e|{e}d>cd>e d>gf>d|!
e2e>f d2d>e|c2c>e d2e>f|g>ea>g f>ed>c|B>cd>e d>Gc>d|!
e2e>f d2d>e|c2c>e d2e>f|g>ef>d c2e>d|c2c>c c2|]
